public/assets/img/material-icons/signal_cellular_nodata.svg

<svg height="24" viewBox="0 0 24 24" width="24" xmlns="http://www.w3.org/2000/svg"><path d="m22 13h-9v9h-11l20-20zm-1 2.41-1.41-1.41-2.09 2.09-2.09-2.09-1.41 1.41 2.09 2.09-2.09 2.09 1.41 1.41 2.09-2.08 2.09 2.08 1.41-1.41-2.08-2.09z"/></svg>

<svg xmlns="http://www.w3.org/2000/svg" width="24" height="24" viewBox="0 0 24 24"><path d="M22 13h-9v9H2L22 2v11zm-1 2.41L19.59 14l-2.09 2.09L15.41 14 14 15.41l2.09 2.09L14 19.59 15.41 21l2.09-2.08L19.59 21 21 19.59l-2.08-2.09L21 15.41z"/></svg>
